X: 1
T: Bride's, The
M: 6/8
L: 1/8
R: jig
K: Bmin
|:BBB d2e|fed c2B|AAA c2A|cef ecA|
BBB d2e|fed cde|fBB ecA|BBB f2f:|
|:dfa afd|afd afd|cde ede|cde ecA|
dfa afd|afd afd|d2f ecA|BBB f2f:|
